app/assets/images/heroicons/micro/key.svg

<svg width="16" height="16" viewBox="0 0 16 16" fill="none" xmlns="http://www.w3.org/2000/svg">
<path fill-rule="evenodd" clip-rule="evenodd" d="M14 6C14 8.20914 12.2091 10 10 10C9.69101 10 9.39021 9.96497 9.10135 9.89865L7.14645 11.8536C7.05268 11.9473 6.9255 12 6.79289 12H5V13.5C5 13.7761 4.77614 14 4.5 14H2.5C2.22386 14 2 13.7761 2 13.5V11.2071C2 11.0745 2.05268 10.9473 2.14645 10.8536L6.10135 6.89865C6.03503 6.60979 6 6.30899 6 6C6 3.79086 7.79086 2 10 2C12.2091 2 14 3.79086 14 6ZM10 4C9.58579 4 9.25 4.33579 9.25 4.75C9.25 5.16421 9.58579 5.5 10 5.5C10.2761 5.5 10.5 5.72386 10.5 6C10.5 6.41421 10.8358 6.75 11.25 6.75C11.6642 6.75 12 6.41421 12 6C12 4.89543 11.1046 4 10 4Z" fill="black"/>
</svg>

<svg xmlns="http://www.w3.org/2000/svg" viewBox="0 0 16 16" fill="currentColor" aria-hidden="true" data-slot="icon">
  <path fill-rule="evenodd" d="M14 6a4 4 0 0 1-4.899 3.899l-1.955 1.955a.5.5 0 0 1-.353.146H5v1.5a.5.5 0 0 1-.5.5h-2a.5.5 0 0 1-.5-.5v-2.293a.5.5 0 0 1 .146-.353l3.955-3.955A4 4 0 1 1 14 6Zm-4-2a.75.75 0 0 0 0 1.5.5.5 0 0 1 .5.5.75.75 0 0 0 1.5 0 2 2 0 0 0-2-2Z" clip-rule="evenodd"/>
</svg>
